!!!COM: Beethoven, Ludwig van
!!!CDT: 1770///-1827///
!!!OTL: Piano Sonata no. 25 in G major
!!!OTP: cuckoo
!!!OPS: 79
!!!OMV: 1
!!!OMD: Presto alla tedesca
**kern	**kern	**dynam
*staff2	*staff1	*staff1/2
*Ipiano	*Ipiano	*Ipiano
*>[I,A,A2,A,A2,B,B1,B,B2,C]	*>[I,A,A2,A,A2,B,B1,B,B2,C]	*>[I,A,A2,A,A2,B,B1,B,B2,C]
*>norep[I,A,A2,B,B2,C]	*>norep[I,A,A2,B,B2,C]	*>norep[I,A,A2,B,B2,C]
*>I	*>I	*>I
*clefF4	*clefG2	*clefG2
*k[f#]	*k[f#]	*k[f#]
*G:	*G:	*G:
*M3/4	*M3/4	*M3/4
*MM200	*MM200	*MM200
=1-	=1-	=1-
8G\ 8B\L	4g'\ 4gg'\	f
8d\	.	.
8G\ 8B\	4b'\ 4bb'\	.
8d\	.	.
8G\ 8B\	4g'\ 4gg'\	.
8d\J	.	.
=2!|:	=2!|:	=2!|:
*>A	*>A	*>A
8G\ 8B\L	2dd\ (2ddd\	.
8d\	.	.
8G\ 8B\	.	.
8d\	.	.
8G\ 8B\	8ccc\L	.
8d\J	8bb\J	.
=3	=3	=3
8G\ 8B\L	8aa\L	.
8d\	8gg\	.
8G\ 8B\	8ff#\	.
8d\	8gg\	.
8G\ 8B\	8bb\	.
8d\J	8gg\J)	.
=4	=4	=4
8G\ 8c\L	(4ff#\	.
8e\	.	.
8G\ 8c\	4ee\)	.
8e\	.	.
8G\ 8c\	(8dd\L	.
8e\J	8cc\J	.
=5	=5	=5
8G\ 8c\L	8b\L	.
8e\	8a\	.
8G\ 8c\	8g#\	.
8e\	8a\	.
8G\ 8c\	8cc\	.
8e\J	8a\J)	.
=6	=6	=6
8G\ 8A\ 8c\L	2f#/	.
8d\	.	.
8G\ 8A\ 8c\	.	.
8d\	.	.
8G\ 8A\ 8c\	4a'/	.
8d\J	.	.
=7	=7	=7
8G\ 8A\ 8c\L	4cc'/	.
8d\	.	.
8G\ 8A\ 8c\	4a'/	.
8d\	.	.
8G\ 8A\ 8c\	4f#'/	.
8d\J	.	.
=8	=8	=8
2.G\ 2.B\	8g/L	f
.	8d/	.
.	8c#/	.
.	8d/	.
.	8f#/	.
.	8g/J	.
=9	=9	=9
2.FF#/ 2.D/ 2.F#/	8a/L	.
.	8d/	.
.	8c#/	.
.	8d/	.
.	8g/	.
.	8a/J	.
=10	=10	=10
2GG\ 2D\ 2G\	8b/L	.
.	8g/	.
.	8f#/	.
.	8g/	.
8AA\ 8A\L	8ccn/	.
8BB\ 8B\J	8dd/J	.
=11	=11	=11
4C\ 4c\	8ee\L	.
.	8dd\	.
4C\ 4c\	8cc\	.
.	8b\	.
4C#\ 4c#\	8a\	.
.	8g\J	.
=12	=12	=12
8D\ 8d\L	4f#/	.
8D\	.	.
8F#\	8r	.
8A\J	8d/L	p
4r	8f#/	.
.	8a/J	.
=13	=13	=13
2.r	8dd\L	.
.	8f#\	.
.	8a\	.
.	8dd\	.
.	8ff#\	.
.	8a\J	.
=14	=14	=14
2.r	8dd\L	.
.	8ff#\	.
.	8aa\	.
.	8dd\	.
.	8ff#\	.
.	8aa\J	.
=15	=15	=15
2.r	8ddd\L	.
.	8ff#\	.
.	8aa\	.
.	8ddd\	.
.	8fff#\	.
.	8eee\J	.
=16	=16	=16
8BB\L	4ddd\	.
8D\	.	.
8F#\	8r	.
8B\J	8d/L	.
4r	8f#/	.
.	8b/J	.
=17	=17	=17
2.r	8dd\L	.
.	8f#\	.
.	8b\	.
.	8dd\	.
.	8ff#\	.
.	8b\J	.
=18	=18	=18
2.r	8dd\L	.
.	8ff#\	.
.	8bb\	.
.	8dd\	.
.	8ff#\	.
.	8bb\J	.
=19	=19	=19
2.r	8ddd\L	.
.	8ff#\	.
.	8bb\	.
.	8ddd\	.
.	8fff#\	.
.	8eee\J	.
=20	=20	=20
8GG#\L	4ddd\	.
8BB\	.	.
8D\	8r	.
8E\J	8d/L	.
4G#\	8e/	.
.	8g#/J	.
=21	=21	=21
2.r	8b/L	.
.	8e/	.
.	8g#/	.
.	8b/	.
.	8dd/	.
.	8g#/J	.
=22	=22	=22
2.r	8b\L	.
.	8dd\	.
.	8gg#\	.
.	8b\	.
.	8dd\	.
.	8gg#\J	.
=23	=23	=23
4r	8bb\L	.
.	8gg#\	.
4G#\ 4B\	8ee\	.
.	8ff#\	.
4G#\ 4B\ 4d\	8ee\	.
.	8ff#\J	.
=24	=24	=24
*	*^	*
4A\	2.cc#/ 2.ee/	8c#\L	.
.	.	8d\	.
4r	.	8e\	.
.	.	8f#\	.
4r	.	8g#\	.
.	.	8a\J	.
=25	=25	=25	=25
2.r	2.dd/ 2.ee/	8g#\L	.
.	.	8f#\	.
.	.	8e\	.
.	.	8d\	.
.	.	8c#\	.
.	.	8B\J	.
*	*v	*v	*
=26	=26	=26
8A\L	2.ee\ 2.ggn\	.
8Gn\	.	.
8F#\	.	.
8E\	.	.
8D\	.	.
8C#\J	.	.
=27	=27	=27
8D\L	4dd\ 4ff#\	p
8E\	.	.
8F#\	4dd\ 4ff#\	.
8G#\	.	.
8A\	4dd\ 4ff#\	.
8B\J	.	.
=28	=28	=28
*	*^	*
4A\	2.cc#/ 2.ee/	8c#\L	.
.	.	8d\	.
4r	.	8e\	<
.	.	8f#\	.
4r	.	8g#\	.
.	.	8a\J	.
=29	=29	=29	=29
2.r	2.dd/ 2.ee/	8g#\L	.
.	.	8f#\	.
.	.	8e\	.
.	.	8d\	.
.	.	8c#\	.
.	.	8B\J	.
*	*v	*v	*
=30	=30	=30
8A\L	2.ee\ 2.ggn\	.
8Gn\	.	.
8F#\	.	.
8E\	.	.
8D\	.	.
8C#\J	.	.
=31	=31	=31
8D\L	4dd\ 4ff#\	p
8E\	.	.
8F#\	4dd\ 4ff#\	.
8G#\	.	.
8A\	4dd\ 4ff#\	.
8B\J	.	.
=32	=32	=32
[2.A\ 2.c#\ 2.e\	8cc#\ (8ee\L	p
.	8dd\	.
.	8ee\	.
.	8ff#\	.
.	8gg#\	.
.	8aa\J	.
=33	=33	=33
2.A\] 2.B\ 2.d\	8gg#\L	.
.	8ff#\	.
.	8ee\	.
.	8dd\	.
.	8cc#\	.
.	8b\J)	.
=34	=34	=34
[2.A\ 2.d\ 2.g#\	(8dd\L	.
.	8ee\	.
.	8ff#\	.
.	8gg#\	.
.	8aa\	.
.	8bb\J	.
=35	=35	=35
2.A\] 2.c#\ 2.e\	8aa\L	.
.	8ggn\	.
.	8ff#\	.
.	8ee\	.
.	8dd\	.
.	8cc#\J)	.
=36	=36	=36
2.A\ 2.c#\ 2.e\ 2.gn\	8ee\L	.
.	8ggn\	.
.	8ccc#\	<
.	8gg\	.
.	8eee\	.
.	8ccc#\J	.
=37	=37	=37
2.B-\ 2.c#\ 2.e\ 2.g\	8eee\L	.
.	8ccc#\	.
.	8eee\	.
.	8ccc#\	.
.	8eee\	.
.	8ccc#\J	.
=38	=38	=38
2A\ 2c#\ 2e\ 2g\	8eee\L	.
.	8ccc#\	.
.	8aa\	.
.	8bb\	.
4G\ 4c#\ 4e\	8ccc#\	.
.	8aa\J	.
=39	=39	=39
2F#\ 2A\ 2d\	8ddd\L	>
.	8aa\	.
.	8ddd\	.
.	8aa\	.
4D\ 4A\ 4d\	8ff#\	.
.	8dd\J	.
*clefG2	*	*
=40	=40	=40
2.A/ 2.c#/ 2.e/ 2.g/	8ee\L	<
.	8gg\	.
.	8ccc#\	.
.	8gg\	.
.	8eee\	.
.	8ccc#\J	.
=41	=41	=41
2.B-/ 2.c#/ 2.e/ 2.g/	8eee\L	f
.	8ccc#\	.
.	8eee\	.
.	8ccc#\	.
.	8eee\	.
.	8ccc#\J	.
=42	=42	=42
2A/ 2c#/ 2e/ 2g/	8eee\L	.
.	8ccc#\	.
.	8aa\	.
.	8bb\	.
*clefF4	*	*
4G\ 4c#\ 4e\	8ccc#\	.
.	8aa\J	.
=43	=43	=43
2F#\ 2A\ 2d\	8ddd\L	>
.	8aa\	.
.	8ddd\	.
.	8aa\	.
4D\ 4A\ 4d\	8ff#\	.
.	8dd\J	.
=44	=44	=44
4G\ 4B\ 4d\	8bb\L	p
.	8gg\	.
4r	8bb\	.
.	8gg\	.
4G\ 4B\ 4e\	8dd\	.
.	8b\J	.
=45	=45	=45
4A\ 4d\ 4f#\	2a\	.
4r	.	.
*clefG2	*	*
4A/ 4c#/ 4g/	4ee\	.
*clefF4	*	*
=46	=46	=46
8D\ 8F#\L	4dd\	f
8A\	.	.
8D\ 8F#\	4a'\ 4aa'\	.
8A\	.	.
8D\ 8F#\	4d'/ 4dd'/	.
8A\J	.	.
=47	=47	=47
8D\ 8E\ 8G\L	4r	.
8A\	.	.
8D\ 8E\ 8G\	4g'\ 4gg'\	.
8A\	.	.
8D\ 8E\ 8G\	4c#'/ 4cc#'/	.
8A\J	.	.
=48	=48	=48
4r	4r	.
4D'/	4d'/ 4dd'/	p
4BB'/	4B'/ 4b'/	.
=49	=49	=49
4r	4r	.
4C'/	4cn'/ 4ccn'/	.
4AA'/	4A'/ 4a'/	.
=50	=50	=50
*>A1	*>A1	*>A1
4GG'/	4g'\ 4gg'\	f
8G\ 8B\L	4b'\ 4bb'\	.
8d\	.	.
8G\ 8B\	4g'\ 4gg'\	.
8d\J	.	.
=51:|!	=51:|!	=51:|!
*>A2	*>A2	*>A2
4r	4r	.
4BB'\ 4B'\	4b'\ 4bb'\	f
4GG#'\ 4G#'\	4g#'\ 4gg#'\	.
=52	=52	=52
4r	4r	.
4AA'\ 4A'\	4a'\ 4aa'\	.
4FF#'\ 4F#'\	4f#'\ 4ff#'\	.
=53!|:	=53!|:	=53!|:
*>B	*>B	*>B
8E\ 8G#\L	4e'\ 4ee'\	.
8B\	.	.
8E\ 8G#\	4g#'\ 4gg#'\	.
8B\	.	.
8E\ 8G#\	4e'\ 4ee'\	.
8B\J	.	.
=54	=54	=54
8E\ 8G#\L	2b\ (2bb\	.
8B\	.	.
8E\ 8G#\	.	.
8B\	.	.
8E\ 8G#\	8aa\L	.
8B\J	8gg#\J	.
=55	=55	=55
8E\ 8G#\L	8ff#\L	.
8B\	8ee\	.
8E\ 8G#\	8dd#\	.
8B\	8ee\	.
8E\ 8G#\	8gg#\	.
8B\J	8ee\J)	.
=56	=56	=56
8E\ 8A\L	(4dd#\	.
8c#\	.	.
8E\ 8A\	4cc#\)	.
8c#\	.	.
8E\ 8A\	(8b/L	.
8c#\J	8a/J	.
=57	=57	=57
8E\ 8A\L	8g#/L	.
8c#\	8f#/	.
8E\ 8A\	8e#/	.
8c#\	8f#/	.
8E\ 8A\	8a/	.
8c#\J	8f#/J)	.
=58	=58	=58
8E\ 8F#\ 8A\L	2d#/	.
8B\	.	.
8E\ 8F#\ 8A\	.	.
8B\	.	.
8E\ 8F#\ 8A\	4f#/	.
8B\J	.	.
=59	=59	=59
8E\ 8F#\ 8A\L	4a'/	.
8B\	.	.
8E\ 8F#\ 8A\	4f#'/	.
8B\	.	.
8E\ 8F#\ 8A\	4d#'/	.
8B\J	.	.
=60	=60	=60
4E\	8e/L	.
.	8B/	.
*clefG2	*	*
4b'\	8g#/	.
.	8B/	.
4g#'/	8e/	.
.	8B/J	.
=61	=61	=61
*clefF4	*	*
4E\	8e/L	.
.	8B/	.
*clefG2	*	*
4b'\	8g#/	.
.	8B/	.
4g#'/	8e/	.
.	8B/J	.
*clefF4	*	*
=62	=62	=62
4E\	8e/L	.
.	8B/	.
*clefG2	*	*
4b'\	8g#/	.
.	8B/	.
4g#'/	8e/	.
.	8B/J	.
*clefF4	*	*
=63	=63	=63
4BB/	8d#/L	.
.	8B/	.
*clefG2	*	*
4a/	8f#/	.
.	8B/	.
4f#/	8d#/	.
.	8B/J	.
*clefF4	*	*
=64	=64	=64
4BB/	8d#/L	.
.	8B/	.
*clefG2	*	*
4a/	8f#/	.
.	8B/	.
4f#/	8d#/	.
.	8B/J	.
*clefF4	*	*
=65	=65	=65
4BB/	8d#/L	.
.	8B/	.
*clefG2	*	*
4a/	8f#/	.
.	8B/	.
4f#/	8d#/	.
.	8B/J	.
*clefF4	*	*
=66	=66	=66
4BB/	8d#/L	.
.	8B/	.
*clefG2	*	*
4a/	8f#/	.
.	8B/	.
4f#/	8d#/	.
.	8B/J	.
*clefF4	*	*
=67	=67	=67
4E\	8e/L	p
.	8B/	.
*clefG2	*	*
4gn/	8e/	.
.	8B/	.
4g/	8e/	.
.	8B/J	.
*clefF4	*	*
=68	=68	=68
4C/	8c/L	.
.	8G/	.
*clefG2	*	*
4g/	8e/	.
.	8G/	.
4e/	8c/	.
.	8G/J	.
*clefF4	*	*
=69	=69	=69
4C/	8c/L	.
.	8G/	.
*clefG2	*	*
4g/	8e/	.
.	8G/	.
4e/	8c/	.
.	8G/J	.
*clefF4	*	*
=70	=70	=70
4C/	8c/L	.
.	8G/	.
*clefG2	*	*
4g/	8e/	.
.	8G/	.
4e/	8c/	.
.	8G/J	.
*clefF4	*	*
=71	=71	=71
4GG/	8B/L	.
.	8G/	.
*clefG2	*	*
4fn/	8d/	.
.	8G/	.
4d/	8B/	.
.	8G/J	.
*clefF4	*	*
=72	=72	=72
4GG/	8B/L	.
.	8G/	.
*clefG2	*	*
4fn/	8d/	.
.	8G/	.
4d/	8B/	.
.	8G/J	.
*clefF4	*	*
=73	=73	=73
4GG/	8B/L	.
.	8G/	.
*clefG2	*	*
4fn/	8d/	.
.	8G/	.
4d/	8B/	.
.	8G/J	.
*clefF4	*	*
=74	=74	=74
4GG/	8B/L	.
.	8G/	.
*clefG2	*	*
4fn/	8d/	.
.	8G/	.
4d/	8B/	.
.	8G/J	.
=75	=75	=75
4a/	8c/L	.
.	8G/	.
*clefG2	*	*
4e/	8c/	.
.	8G/	.
4e/	8c/	.
.	8G/J	.
*clefF4	*clefF4	*clefF4
=76	=76	=76
2.CC/ 2.GG/ 2.C/	8c\L	f
.	8G\	.
.	8F#\	.
.	8G\	.
.	8B\	.
.	8c\J	.
=77	=77	=77
2.BBB/ 2.DD/ 2.GG/ 2.BB/	8d\L	.
.	8G\	.
.	8F#\	.
.	8G\	.
.	8c\	.
.	8d\J	.
*	*clefG2	*clefG2
=78	=78	=78
2CC/ 2GG/ 2C/	8e/L	.
.	8cn/	.
.	8B/	.
.	8c/	.
8AA/L	8fn/	.
8EE/J	8g/J	.
=79	=79	=79
4FFn/	8a/L	.
.	8g/	.
4FF/	8fn/	.
.	8e/	.
4FF#/	8d/	.
.	8c/J	.
=80	=80	=80
4GG/	4B/	.
4r	4r	.
*clefG2	*	*
8d/L	8ffn\L	p
8e/J	8gg\J	.
=81	=81	=81
4fn'/	8aa\L	.
.	8gg\	.
4f'/	8ffn\	.
.	8ee\	.
4f#'/	8dd\	.
.	8cc\J	.
=82	=82	=82
4g/	4b\	.
4r	4r	.
*clefF4	*	*
8Fn\L	8fn/L	p
8G\J	8g/J	.
=83	=83	=83
8A-\L	8a-/L	<
8G\	8g/	.
8Fn\	8fn/	.
8E-\	8e-/	.
8D\	8d/	.
8G\J	8g/J	.
=84	=84	=84
4C/	8c/L	f
.	8G/	.
*clefG2	*	*
4g/	8e-/	.
.	8G/	.
4e-/	8c/	.
.	8G/J	.
*clefF4	*	*
=85	=85	=85
4C/	8c/L	.
.	8G/	.
*clefG2	*	*
4g/	8e-/	.
.	8G/	.
4e-/	8c/	.
.	8G/J	.
*clefF4	*	*
=86	=86	=86
4C/	8c/L	.
.	8G/	.
*clefG2	*	*
4g/	8e-/	.
.	8G/	.
4e-/	8c/	.
.	8G/J	.
*clefF4	*	*
=87	=87	=87
4GG/	8B/L	.
.	8G/	.
*clefG2	*	*
4fn/	8d/	.
.	8G/	.
4d/	8B/	.
.	8G/J	.
*clefF4	*	*
=88	=88	=88
4GG/	8B/L	.
.	8G/	.
*clefG2	*	*
4fn/	8d/	.
.	8G/	.
4d/	8B/	.
.	8G/J	.
*clefF4	*	*
=89	=89	=89
4GG/	8B/L	.
.	8G/	.
*clefG2	*	*
4fn/	8d/	.
.	8G/	.
4d/	8B/	.
.	8G/J	.
*clefF4	*	*
=90	=90	=90
4GG/	8B/L	.
.	8G/	.
*clefG2	*	*
4fn/	8d/	.
.	8G/	.
4d/	8B/	.
.	8G/J	.
*clefF4	*	*
=91	=91	=91
4C/	8c/L	p
.	8G/	.
*clefG2	*	*
4e-/	8c/	.
.	8G/	.
4fn/	8d/	.
.	8B-/J	.
*clefF4	*	*
=92	=92	=92
4E-\	8e-/ 8g/L	p
.	8B-/	.
*clefG2	*	*
4b-\	8g/	.
.	8B-/	.
4g/	8e-/	.
.	8B-/J	.
*clefF4	*	*
=93	=93	=93
4E-\	8e-/L	.
.	8B-/	.
*clefG2	*	*
4b-\	8g/	.
.	8B-/	.
4g/	8e-/	.
.	8B-/J	.
*clefF4	*	*
=94	=94	=94
4E-\	8e-/L	.
.	8B-/	.
*clefG2	*	*
4b-\	8g/	.
.	8B-/	.
4g/	8e-/	.
.	8B-/J	.
*clefF4	*	*
=95	=95	=95
4BB-/	8d/L	.
.	8B-/	.
*clefG2	*	*
4a-/	8fn/	.
.	8B-/	.
4fn/	8d/	.
.	8B-/J	.
*clefF4	*	*
=96	=96	=96
4BB-/	8d/L	.
.	8B-/	.
*clefG2	*	*
4a-/	8fn/	.
.	8B-/	.
4fn/	8d/	.
.	8B-/J	.
*clefF4	*	*
=97	=97	=97
4BB-/	8d/L	.
.	8B-/	.
*clefG2	*	*
4a-/	8fn/	.
.	8B-/	.
4fn/	8d/	.
.	8B-/J	.
*clefF4	*	*
=98	=98	=98
4BB-/	8d/L	.
.	8B-/	.
*clefG2	*	*
4a-/	8fn/	.
.	8B-/	.
4fn/	8d/	.
.	8B-/J	.
*clefF4	*	*
=99	=99	=99
4E-\	8e-/L	.
.	8B-/	.
*clefG2	*	*
4g/	8e-/	.
.	8B-/	.
4g/	8e-/	.
.	8B-/J	.
*clefF4	*	*
=100	=100	=100
2.EE-/ 2.BB-/ 2.E-/	8e-/L	f
.	8B-/	.
.	8An/	.
.	8B-/	.
.	8d/	.
.	8e-/J	.
=101	=101	=101
2.DD/ 2.BB-/ 2.D/	8fn/L	.
.	8B-/	.
.	8A/	.
.	8B-/	.
.	8e-/	.
.	8f/J	.
=102	=102	=102
2EE-/ 2BB-/ 2E-/	8g/L	.
.	8e-/	.
.	8d/	.
.	8e-/	.
8C/L	8a-/	.
8GG/J	8b-/J	.
=103	=103	=103
4AA-/	8cc/L	.
.	8b-/	.
4AA-/	8a-/	.
.	8g/	.
4AAn/	8fn/	.
.	8e-/J	.
=104	=104	=104
4BB-/	4d/	.
4r	4r	.
*clefG2	*	*
8cc\L	8aa-\L	p
8b-\J	8bb-\J	.
=105	=105	=105
4a-/	8ccc\L	.
.	8bb-\	.
4a-/	8aa-\	.
.	8gg\	.
4an/	8ffn\	.
.	8ee-\J	.
=106	=106	=106
4b-\	4dd\	.
4r	4r	.
*clefF4	*	*
8C/L	8c/L	f
8D/J	8d/J	.
=107	=107	=107
8E-/L	8e-/L	.
8D/	8d/	.
8C/	8c/	.
8BB-/	8B-/	.
8AAn/	8An/	.
8GG/J	8G/J	.
=108	=108	=108
*^	*	*
4F#/	4FF#\	4r	.
4r	4r	4r	.
*v	*v	*	*
*clefG2	*	*
*^	*	*
4r	8cc\L	8ccc\L	p
.	8dd\J	8ddd\J	.
*v	*v	*	*
=109	=109	=109
8ee-\L	8eee-\L	>
8dd\	8ddd\	.
8cc\	8ccc\	.
8b-\	8bb-\	.
8a\	8aa\	.
8g\J	8gg\J	.
=110	=110	=110
8f#/L	8ff#\L	.
8e-/	8ee-\	.
8d/	8dd\	.
8c/	8cc\	.
8B-/	8b-\	.
8A/J	8a\J	.
*clefF4	*	*
=111	=111	=111
4G\	8g/L	p
.	8f#/	.
4E-\	8g/	.
.	8a/	.
4C#\	8b-/	.
.	8g/J	.
=112	=112	=112
4D\	4f#/	.
*clefG2	*	*
4a/	8f#/L	.
.	8A/	.
4f#/	8d/	.
.	8A/J	.
*clefF4	*	*
=113	=113	=113
4D\	8d/L	.
.	8A/	.
*clefG2	*	*
4a/	8f#/	.
.	8A/	.
4f#/	8d/	.
.	8A/J	.
*clefF4	*	*
=114	=114	=114
4D\	8d/L	.
.	8A/	.
*clefG2	*	*
4a/	8f#/	.
.	8A/	.
4f#/	8d/	.
.	8A/J	.
*clefF4	*	*
=115	=115	=115
4AA/	8c#/L	.
.	8A/	.
*clefG2	*	*
4g/	8en/	.
.	8A/	.
4en/	8c#/	.
.	8A/J	.
*clefF4	*	*
=116	=116	=116
4AA/	8c#/L	.
.	8A/	.
*clefG2	*	*
4g/	8e/	.
.	8A/	.
4e/	8c#/	.
.	8A/J	.
*clefF4	*	*
=117	=117	=117
4AA/	8c#/L	.
.	8A/	.
*clefG2	*	*
4g/	8e/	.
.	8A/	.
4e/	8c#/	.
.	8A/J	.
*clefF4	*	*
=118	=118	=118
4AA/	8c#/L	.
.	8A/	.
*clefG2	*	*
4g/	8e/	.
.	8A/	.
4e/	8c#/	.
.	8A/J	.
*clefF4	*	*
=119	=119	=119
4D\	8d/L	.
.	8A/	.
*clefG2	*	*
4f#/	8a/	.
.	8d/	.
4d/	8a/	.
.	8f#/J	.
*clefF4	*	*
=120	=120	=120
4F#'\	8a/ 8dd/L	<
.	8d/	.
4D'\	8a/ 8dd/	.
.	8d/	.
4FF#'/	8a/ 8dd/	.
.	8d/J	.
=121	=121	=121
4DD/	8a/ 8dd/L	.
.	8d/	.
4F#\	8a/ 8dd/	.
.	8d/	.
4D\	8a/ 8dd/	.
.	8d/J	.
=122	=122	=122
4FF#/	8a/ 8ccn/L	.
.	8d/	.
4DD/	8a/ 8cc/	.
.	8d/	.
4F#\	8a/ 8cc/	.
.	8d/J	.
=123	=123	=123
4D/	8a/ 8cc/L	.
.	8d/	.
4FF#/	8a/ 8cc/	.
.	8d/	.
4DD/	8a/ 8cc/	.
.	8d/J	.
=124	=124	=124
4GG/	4g\ 4gg\	f
8G\ 8B\L	4b'\ 4bb'\	.
8d\	.	.
8G\ 8B\	4g'\ 4gg'\	.
8d\J	.	.
=125	=125	=125
8G\ 8B\L	2dd\ 2ddd\	.
8d\	.	.
8G\ 8B\	.	.
8d\	.	.
8G\ 8B\	(8ccc\L	.
8d\J	8bb\J	.
=126	=126	=126
8G\ 8B\L	8aa\L	.
8d\	8gg\	.
8G\ 8B\	8ff#\	.
8d\	8gg\	.
8G\ 8B\	8bb\	.
8d\J	8gg\J)	.
=127	=127	=127
8G\ 8c\L	(4ff#\	.
8e\	.	.
8G\ 8c\	4ee\)	.
8e\	.	.
8G\ 8c\	(8dd\L	.
8e\J	8cc\J	.
=128	=128	=128
8G\ 8c\L	8b\L	.
8e\	8a\	.
8G\ 8c\	8g#\	.
8e\	8a\	.
8G\ 8c\	8cc\	.
8e\J	8a\J	.
=129	=129	=129
8G\ 8A\ 8c\L	2f#/)	.
8d\	.	.
8G\ 8A\ 8c\	.	.
8d\	.	.
8G\ 8A\ 8c\	4a/)	.
8d\J	.	.
=130	=130	=130
8G\ 8A\ 8c\L	4cc'\	.
8d\	.	.
8G\ 8A\ 8c\	4a'/	.
8d\	.	.
8G\ 8A\ 8c\	4f#'/	.
8d\J	.	.
=131	=131	=131
2.G\ 2.B\	8g/L	f
.	8d/	.
.	8c#/	.
.	8d/	.
.	8f#/	.
.	8g/J	.
=132	=132	=132
2.F#\ 2.A\	8a/L	.
.	8d/	.
.	8c#/	.
.	8d/	.
.	8g/	.
.	8a/J	.
=133	=133	=133
2.G\ 2.B\	8b/L	.
.	8g/	.
.	8f#/	.
.	8g/	.
.	8a/	.
.	8b/J	.
=134	=134	=134
2.A\ 2.c\	8ccn/L	.
.	8g/	.
.	8f#/	.
.	8g/	.
.	8b/	.
.	8cc/J	.
=135	=135	=135
8BB\L	4dd\	p
8D\	.	.
8G\	8r	.
8B\J	8d/L	.
4r	8g/	.
.	8b/J	.
=136	=136	=136
2.r	8dd\L	.
.	8g\	.
.	8b\	.
.	8dd\	.
.	8gg\	.
.	8b\J	.
=137	=137	=137
2.r	8dd\L	.
.	8gg\	.
.	8bb\	.
.	8dd\	.
.	8gg\	.
.	8bb\J	.
=138	=138	=138
2.r	8ddd\L	.
.	8ccc\	.
.	8bb\	.
.	8aa\	.
.	8gg\	.
.	8ffn\J	.
=139	=139	=139
8C\L	4ee\	.
8E\	.	.
8G\	8r	.
8c\J	8e/L	.
4r	8g/	.
.	8cc/J	.
=140	=140	=140
2.r	8ee\L	.
.	8e\	.
.	8g\	.
.	8cc\	.
.	8ee\	.
.	8g\J	.
=141	=141	=141
2.r	8cc\L	.
.	8ee\	.
.	8gg\	.
.	8cc\	.
.	8ee\	.
.	8gg\J	.
=142	=142	=142
2.r	8ccc\L	.
.	8ee\	.
.	8gg\	.
.	8ccc\	.
.	8eee\	.
.	8ddd\J	.
=143	=143	=143
8AA\L	4ccc#\	.
8C#\	.	.
8E\	8r	.
8G\J	8c#/L	.
4r	8e/	.
.	8g/J	.
=144	=144	=144
2.r	8cc#\L	.
.	8e\	.
.	8g\	.
.	8cc#\	.
.	8ee\	.
.	8g\J	.
=145	=145	=145
2.r	8cc#\L	.
.	8ee\	.
.	8gg\	.
.	8cc#\	.
.	8ee\	.
.	8gg\J	.
=146	=146	=146
4r	(8ccc#\L	.
.	8eee\	.
*clefG2	*	*
4c#/ 4e/	8aa\	.
.	8bb\	.
4e/ 4g/	8aa\	.
.	8bb\J)	.
=147	=147	=147
(8d/ 8f#/L	2.ff#\ 2.aa\	<
8g/	.	.
8a/	.	.
8b/	.	.
8cc#/	.	.
8dd/J	.	.
=148	=148	=148
8cc#/L	2.gg\ 2.aa\	.
8b/	.	.
8a/	.	.
8g/	.	.
8f#/	.	.
8e/J)	.	.
*clefF4	*	*
=149	=149	=149
(8d\L	2.aa\ 2.cccn\	.
8cn\	.	.
8B\	.	.
8A\	.	.
8G\	.	.
8F#\J	.	.
=150	=150	=150
8G\L	4gg\ 4bb\	p
8A\	.	.
8B\	4gg\ 4bb\	.
8c#\	.	.
8d\	4gg\ 4bb\	.
8e\J)	.	.
*clefG2	*	*
=151	=151	=151
(8d/ 8f#/L	2.ff#\ 2.aa\	<
8g/	.	.
8a/	.	.
8b/	.	.
8cc#/	.	.
8dd/J	.	.
=152	=152	=152
8cc#/L	2.gg\ 2.aa\	.
8b/	.	.
8a/	.	.
8g/	.	.
8f#/	.	.
8e/J)	.	.
*clefF4	*	*
=153	=153	=153
(8d\L	2.aa\ 2.cccn\	.
8cn\	.	.
8B\	.	.
8A\	.	.
8G\	.	.
8F#\J	.	.
=154	=154	=154
8G\L	4gg\ 4bb\	p
8A\	.	.
8B\	4gg\ 4bb\	.
8c#\	.	.
8d\	4gg\ 4bb\	.
8e\J)	.	.
*clefG2	*	*
=155	=155	=155
[2.d/ 2.f#/ 2.a/	8ff#\ (8aa\L	p
.	8gg\	.
.	8aa\	.
.	8bb\	.
.	8ccc#\	.
.	8ddd\J	.
=156	=156	=156
2.d/] 2.e/ 2.g/	8ccc#\L	.
.	8bb\	.
.	8aa\	.
.	8gg\	.
.	8ff#\	.
.	8ee\J)	.
=157	=157	=157
[2.d/ 2.g/ 2.cc#/	(8gg\L	.
.	8aa\	.
.	8bb\	.
.	8ccc#\	.
.	8ddd\	.
.	8eee\J	.
=158	=158	=158
2.d/] 2.f#/ 2.a/	8ddd\L	.
.	8cccn\	.
.	8bb\	.
.	8aa\	.
.	8gg\	.
.	8ff#\J)	.
=159	=159	=159
*	*8va	*
2.d/ 2.f#/ 2.a/ 2.ccn/	8aa\L	.
.	8cccn\	.
.	8fff#\	.
.	8ccc\	.
.	8aaa\	.
.	8fff#\J	.
=160	=160	=160
2.e-/ 2.f#/ 2.a/ 2.cc/	8aaa\L	.
.	8fff#\	.
.	8aaa\	.
.	8fff#\	.
.	8aaa\	.
.	8fff#\J	.
=161	=161	=161
2d/ 2f#/ 2a/ 2cc/	8aaa\L	.
.	8fff#\	.
.	8ddd\	.
.	8eee\	.
4c/ 4f#/ 4a/	8fff#\	.
.	8ddd\J	.
=162	=162	=162
2B/ 2d/ 2g/	8ggg\L	>
.	8ddd\	.
.	8ggg\	.
.	8ddd\	.
4G/ 4d/ 4g/	8bb\	.
.	8gg\J	.
=163	=163	=163
2.d/ 2.f#/ 2.a/ 2.cc/	8aa\L	.
.	8ccc\	.
.	8fff#\	.
.	8ccc\	.
.	8aaa\	.
.	8fff#\J	.
=164	=164	=164
2.e-/ 2.f#/ 2.a/ 2.cc/	8aaa\L	.
.	8fff#\	.
.	8aaa\	.
.	8fff#\	.
.	8aaa\	.
.	8fff#\J	.
=165	=165	=165
2d/ 2f#/ 2a/ 2cc/	8aaa\L	.
.	8fff#\	.
.	8ddd\	.
.	8eee\	.
4c/ 4f#/ 4a/	8fff#\	.
.	8ddd\J	.
=166	=166	=166
2B/ 2d/ 2g/	8ggg\L	>
.	8ddd\	.
.	8ggg\	.
.	8ddd\	.
4G/ 4d/ 4g/	8bb\	.
.	8gg\J	.
=167	=167	=167
4c/ 4e/ 4g/	8eee\L	p
.	8ccc\	.
4r	8eee\	.
.	8ccc\	.
4c/ 4e/ 4a/	8gg\	.
.	8ee\J	.
=168	=168	=168
4d/ 4g/ 4b/	2dd/	.
*	*X8va	*
4r	.	.
4d/ 4f#/ 4cc/	4aa\	.
*clefF4	*	*
=169	=169	=169
8G\ 8B\L	4gg'\	f
8d\	.	.
8G\ 8B\	4dd'\ 4ddd'\	.
8d\	.	.
8G\ 8B\	4g'\ 4gg'\	.
8d\J	.	.
=170	=170	=170
8G\ 8A\ 8c\L	4r	.
8d\	.	.
8G\ 8A\ 8c\	4cc'\ 4ccc'\	.
8d\	.	.
8G\ 8A\ 8c\	4f#'\ 4ff#'\	.
8d\J	.	.
=171	=171	=171
*>B1	*>B1	*>B1
4r	4r	.
4D'/	4d'/ 4dd'/	p
4BB'/	4B'/ 4b'/	.
=172	=172	=172
4r	4r	.
4C'/	4c'/ 4cc'/	.
4AA'/	4A'/ 4a'/	.
=173	=173	=173
4r	4r	.
4BB\ 4B\	4b\ 4bb\	f
4GG#\ 4G#\	4g#\ 4gg#\	.
=174	=174	=174
4r	4r	.
4AA/ 4A/	4a\ 4aa\	.
4FF#/ 4F#/	4f#\ 4ff#\	.
=175:|!	=175:|!	=175:|!
*>B2	*>B2	*>B2
8BB/L	4r	.
8D/	.	.
8BB/	4d/ 4dd/	p
8D/	.	.
8BB/	4G/ 4g/	.
8D/J	.	.
=176	=176	=176
*>C	*>C	*>C
8AA/L	4r	.
8D/	.	.
8AA/	4c/ 4cc/	.
8D/	.	.
8DD/	4F#/ 4f#/	.
8D/J	.	.
=177	=177	=177
8G\ 8B\L	4r	.
8d\	.	.
8G\ 8B\	4dd\ 4ddd\	f
8d\	.	.
8G\ 8B\	4g\ 4gg\	.
8d\J	.	.
=178	=178	=178
8G\ 8A\ 8c\L	4r	.
8d\	.	.
8G\ 8A\ 8c\	4cc\ 4ccc\	.
8d\	.	.
8G\ 8A\ 8c\	4f#\ 4ff#\	.
8d\J	.	.
=179	=179	=179
8BB/L	4r	.
8D/	.	.
8BB/	4d/ 4dd/	p
8D/	.	.
8BB/	4G/ 4g/	.
8D/J	.	.
=180	=180	=180
8AA/L	4r	.
8D/	.	.
8AA/	4c/ 4cc/	.
8D/	.	.
8DD/	4F#/ 4f#/	.
8D/J	.	.
=181	=181	=181
4GG/	8g/ 8b/L	f
.	8d/	.
4BB/	8g/ 8b/	.
.	8d/	.
4GG/	8g/ 8b/	.
.	8d/J	.
=182	=182	=182
(2D/	8g/ 8b/L	.
.	8d/	.
.	8g/ 8b/	.
.	8d/	.
8C/L	8g/ 8b/	.
8BB/J)	8d/J	.
=183	=183	=183
(8AA/L	8g/ 8b/L	.
8GG/	8d/	.
8FF#/	8g/ 8b/	.
8GG/	8d/	.
8BB/	8g/ 8b/	.
8GG/J)	8d/J	.
=184	=184	=184
(4FF#/	8g/ 8cc/L	.
.	8c/	.
4EE/)	8g/ 8cc/	.
.	8c/	.
4EE/	8g/ 8cc/	.
.	8c/J	.
=185	=185	=185
8C\ 8E\L	4a'/	f
8A\	.	.
8C\ 8E\	4cc'\	.
8A\	.	.
8C\ 8E\	4a'/	.
8A\J	.	.
=186	=186	=186
8C\ 8E\L	(2ee\	.
8A\	.	.
8C\ 8E\	.	.
8A\	.	.
8C\ 8E\	8dd\L	.
8A\J	8cc\J)	.
=187	=187	=187
8D\ 8A\L	(8b/L	.
8c\	8a/	.
8D\ 8A\	8cc/	.
8c\	8a/	.
8D\ 8A\	8f#/	.
8c\J	8a/J)	.
=188	=188	=188
8G\ 8B\L	(4a/	.
8d\	.	.
8G\ 8B\	4g/)	.
8d\	.	.
8G\ 8B\	4g/	.
8d\J	.	.
=189	=189	=189
4G\)	8b\ 8dd\L	.
.	8g\	.
4B\)	8b\ 8dd\	.
.	8g\	.
4G\)	8b\ 8dd\	.
.	8g\J	.
=190	=190	=190
(2d\)	8b\ 8dd\L	.
.	8g\	.
.	8b\ 8dd\	.
.	8g\	.
8cn\L	8b\ 8dd\	.
8B\J)	8g\J	.
=191	=191	=191
(8A\L	8b\ 8dd\L	.
8G\	8g\	.
8F#\	8b\ 8dd\	.
8G\	8g\	.
8B\	8b\ 8dd\	.
8G\J)	8g\J	.
=192	=192	=192
(4F#\	8cc\ 8gg\L	.
.	8g\	.
4E\)	8cc\ 8gg\	.
.	8g\	.
4E'\	8cc\ 8gg\	.
.	8g\J	.
=193	=193	=193
8C\ 8E\L	4aa\	f
8A\	.	.
8C\ 8E\	4ccc\	.
8A\	.	.
8C\ 8E\	4aa\	.
8A\J	.	.
=194	=194	=194
8C\ 8E\L	(2eee\	.
8A\	.	.
8C\ 8E\	.	.
8A\	.	.
8C\ 8E\	8dddn\L	.
8A\J	8ccc\J)	.
=195	=195	=195
8D\ 8A\L	(8bb\L	.
8c\	8aa\	.
8D\ 8A\	8ccc\	.
8c\	8aa\	.
8D\ 8A\	8ff#\	.
8c\J	8aa\J)	.
=196	=196	=196
4GG/	8gg\L	p
.	8dd\	.
4B\ 4d\	8bb\	.
.	8gg\	.
4G\ 4B\	8dd\	.
.	8b\J	.
=197	=197	=197
4GG/	8gg\L	.
.	8dd\	.
4B\ 4d\	8bb\	.
.	8gg\	.
4G\ 4B\	8dd\	.
.	8b\J	.
=198	=198	=198
4GG/	8gg\L	.
.	8dd\	.
4B\ 4d\	8bb\	.
.	8gg\	.
4G\ 4B\	8dd\	.
.	8b\J	.
=199	=199	=199
4D\	8ff#\L	.
.	8dd\	.
4A\ 4c\	8aa\	.
.	8ff#\	.
4F#\ 4A\	8dd\	.
.	8cc\J	.
=200	=200	=200
4GG/	8dd\L	.
.	8b\	.
4B\ 4d\	8gg\	.
.	8dd\	.
4G\ 4B\	8b\	.
.	8g\J	.
=201	=201	=201
4GG/	8dd\L	.
.	8b\	.
4B\ 4d\	8gg\	.
.	8dd\	.
4G\ 4B\	8b\	.
.	8g\J	.
=202	=202	=202
4GG/	8dd\L	.
.	8b\	.
4B\ 4d\	8gg\	.
.	8dd\	.
4G\ 4B\	8b\	.
.	8g\J	.
=203	=203	=203
4D\	8cc\L	.
.	8a\	.
4A\ 4c\	8dd\	.
.	8cc\	.
4D\ 4A\	8a\	.
.	8f#\J	.
=204	=204	=204
8GGG/L	4g/	.
8BBB/	.	.
8DD/	8r	.
8GG/	8G/L	.
8BB/	8B/	.
8D/J	8d/J	.
=205	=205	=205
4GG/	8g\L	.
.	8b\	.
4r	8dd\	.
.	8gg\	.
4r	8bb\	.
.	8ddd\J	.
=206	=206	=206
2.r;	4ggg\	.
.	4r	.
.	4r;	.
==	==	==
*-	*-	*-
!!!ENC: Craig Stuart Sapp
!!!END: 2005/08/23/
!!!EEV: 2014/07/13/ (added ottavas)
